public/svg/python.svg

<svg width="24" height="24" viewBox="0 0 24 24" fill="none" xmlns="http://www.w3.org/2000/svg">
<path d="M11.88 0C5.82 0 6.18 2.64 6.18 2.64V5.4H12V6.24H3.9C3.9 6.24 0 5.82 0 11.94C0 18.12 3.42 17.88 3.42 17.88H5.46V15C5.46 15 5.34 11.58 8.82 11.58H14.58C14.58 11.58 17.82 11.64 17.82 8.46V3.18C17.76 3.18 18.24 0 11.88 0ZM8.7 1.86C8.82 1.86 9 1.86 9.12 1.92C9.24 1.98 9.36 2.04 9.48 2.16C9.6 2.28 9.66 2.4 9.72 2.52C9.78 2.64 9.78 2.76 9.78 2.94C9.78 3.24 9.66 3.48 9.48 3.66C9.3 3.84 9 3.96 8.76 3.96C8.64 3.96 8.46 3.96 8.34 3.9C8.22 3.84 8.1 3.78 7.98 3.66C7.86 3.54 7.8 3.42 7.74 3.3C7.68 3.18 7.68 3.06 7.68 2.88C7.68 2.58 7.8 2.34 7.98 2.16C8.16 1.98 8.4 1.86 8.7 1.86Z" fill="#387EB8"/>
<path d="M12.0601 23.9398C18.1201 23.9398 17.7601 21.2998 17.7601 21.2998V18.5398H11.9401V17.6998H20.0401C20.0401 17.6998 23.9401 18.1198 23.9401 11.9998C23.9401 5.81984 20.5201 6.05984 20.5201 6.05984H18.4801V8.93984C18.4801 8.93984 18.6001 12.3598 15.1201 12.3598H9.36012C9.36012 12.3598 6.12012 12.2998 6.12012 15.4798V20.7598C6.24012 20.6998 5.70012 23.9398 12.0601 23.9398ZM15.2401 22.0798C15.1201 22.0798 14.9401 22.0798 14.8201 22.0198C14.7001 21.9598 14.5801 21.8998 14.4601 21.7798C14.3401 21.6598 14.2801 21.5398 14.2201 21.4198C14.1601 21.2998 14.1601 21.1798 14.1601 20.9998C14.1601 20.6998 14.2801 20.4598 14.4601 20.2798C14.6401 20.0998 14.9401 19.9798 15.1801 19.9798C15.3001 19.9798 15.4801 19.9798 15.6001 20.0398C15.7201 20.0998 15.8401 20.1598 15.9601 20.2798C16.0801 20.3998 16.1401 20.5198 16.2001 20.6398C16.2601 20.7598 16.2601 20.8798 16.2601 21.0598C16.2601 21.3598 16.1401 21.5998 15.9601 21.7798C15.7801 21.9598 15.5401 22.0798 15.2401 22.0798Z" fill="#FFC331"/>
</svg>

<svg xmlns="http://www.w3.org/2000/svg" width="24" height="24" fill="none" xmlns:v="https://vecta.io/nano"><path d="M11.88 0c-6.06 0-5.7 2.64-5.7 2.64V5.4H12v.84H3.9S0 5.82 0 11.94c0 6.18 3.42 5.94 3.42 5.94h2.04V15s-.12-3.42 3.36-3.42h5.76s3.24.06 3.24-3.12V3.18c-.06 0 .42-3.18-5.94-3.18zM8.7 1.86c.12 0 .3 0 .42.06s.24.12.36.24.18.24.24.36.06.24.06.42c0 .3-.12.54-.3.72a1.11 1.11 0 0 1-.72.3c-.12 0-.3 0-.42-.06s-.24-.12-.36-.24-.18-.24-.24-.36-.06-.24-.06-.42c0-.3.12-.54.3-.72s.42-.3.72-.3z" fill="#387eb8"/><path d="M12.06 23.94c6.06 0 5.7-2.64 5.7-2.64v-2.76h-5.82v-.84h8.1s3.9.42 3.9-5.7c0-6.18-3.42-5.94-3.42-5.94h-2.04v2.88s.12 3.42-3.36 3.42H9.36s-3.24-.06-3.24 3.12v5.28c.12-.06-.42 3.18 5.94 3.18zm3.18-1.86c-.12 0-.3 0-.42-.06s-.24-.12-.36-.24-.18-.24-.24-.36-.06-.24-.06-.42c0-.3.12-.54.3-.72a1.11 1.11 0 0 1 .72-.3c.12 0 .3 0 .42.06s.24.12.36.24.18.24.24.36.06.24.06.42c0 .3-.12.54-.3.72s-.42.3-.72.3z" fill="#ffc331"/></svg>
